assets/img/icons/duotone-icons/Text/Edit-text.svg

<svg width="24" height="24" viewBox="0 0 24 24" xmlns="http://www.w3.org/2000/svg"><g fill="none" fill-rule="evenodd"><path d="M0 0h24v24H0z"/><path d="M3 19h2v2H3v-2zm5 0h2v2H8v-2zm5 0h2v2h-2v-2zm5 0h2v2h-2v-2z" fill="#335EEA" opacity=".3"/><path d="M10.504 3.256h1.962L17.956 16h-2.592l-1.188-2.916H8.65L7.498 16H4.96l5.544-12.744zm2.88 7.884l-1.962-5.184-1.998 5.184h3.96z" fill="#335EEA"/></g></svg>

<?xml version="1.0" encoding="UTF-8"?>
<svg width="24px" height="24px" viewBox="0 0 24 24" version="1.1" xmlns="http://www.w3.org/2000/svg" xmlns:xlink="http://www.w3.org/1999/xlink">
    <!-- Generator: Sketch 52.2 (67145) - http://www.bohemiancoding.com/sketch -->
    <title>Stockholm-icons / Text / Edit-text</title>
    <desc>Created with Sketch.</desc>
    <g id="Stockholm-icons-/-Text-/-Edit-text" stroke="none" stroke-width="1" fill="none" fill-rule="evenodd">
        <rect id="bound" x="0" y="0" width="24" height="24"></rect>
        <path d="M3,19 L5,19 L5,21 L3,21 L3,19 Z M8,19 L10,19 L10,21 L8,21 L8,19 Z M13,19 L15,19 L15,21 L13,21 L13,19 Z M18,19 L20,19 L20,21 L18,21 L18,19 Z" id="Combined-Shape" fill="#335EEA" opacity="0.3"></path>
        <path d="M10.504,3.256 L12.466,3.256 L17.956,16 L15.364,16 L14.176,13.084 L8.65000004,13.084 L7.49800004,16 L4.96000004,16 L10.504,3.256 Z M13.384,11.14 L11.422,5.956 L9.42400004,11.14 L13.384,11.14 Z" id="A" fill="#335EEA"></path>
    </g>
</svg>
